svgs/sharp-solid/computer-classic.svg

<svg xmlns="http://www.w3.org/2000/svg" viewBox="0 0 448 512"><!--! Font Awesome Pro 6.6.0 by @fontawesome - https://fontawesome.com License - https://fontawesome.com/license (Commercial License) Copyright 2024 Fonticons, Inc. --><path d="M0 0L448 0l0 416L0 416 0 0zM32 512l0-64 384 0 0 64L32 512zM384 64L64 64l0 192 320 0 0-192zM80 360a24 24 0 1 0 0-48 24 24 0 1 0 0 48zm144-40l0 32 16 0 128 0 16 0 0-32-16 0-128 0-16 0z"/></svg>

<svg xmlns="http://www.w3.org/2000/svg" viewBox="0 0 448 512"><!--! Font Awesome Pro 6.4.0 by @fontawesome - https://fontawesome.com License - https://fontawesome.com/license (Commercial License) Copyright 2023 Fonticons, Inc. --><path d="M0 0H448V416H0V0zM32 512V448H416v64H32zM384 64H64V256H384V64zM80 360a24 24 0 1 0 0-48 24 24 0 1 0 0 48zm144-40v32h16H368h16V320H368 240 224z"/></svg>
